dist/images/partners/inglot.svg

<svg width="153" height="22" viewBox="0 0 153 22" fill="none" xmlns="http://www.w3.org/2000/svg">
<path d="M65.1774 6.66183C65.1774 5.66666 65.1774 4.72311 65.1774 3.76129C59.9245 3.76129 54.7168 3.76129 49.4832 3.76129C49.4832 8.57853 49.4832 13.3834 49.4832 18.2185C54.6914 18.2185 59.9082 18.2185 65.1546 18.2185C65.1546 16.2927 65.1546 14.3644 65.1546 12.4067C62.4746 12.4067 59.7939 12.4067 57.0846 12.4067C57.0846 11.5337 57.0846 10.6895 57.0846 9.82458C60.8896 9.82458 64.6873 9.82458 68.5128 9.82458C68.52 9.95601 68.5318 10.0724 68.5318 10.1889C68.5329 12.3658 68.5524 14.5429 68.5205 16.7194C68.5109 17.3737 68.3954 18.0337 68.2618 18.6774C68.0131 19.8757 67.23 20.5808 66.0508 20.823C65.4532 20.9458 64.8373 21.0397 64.2293 21.042C59.618 21.0598 55.0066 21.0588 50.3952 21.0428C49.8228 21.0409 49.2455 20.9461 48.6796 20.8442C47.3244 20.6003 46.5432 19.7569 46.304 18.4233C46.1984 17.8347 46.1201 17.2321 46.1175 16.6354C46.101 12.883 46.0971 9.13039 46.1203 5.3781C46.1244 4.71185 46.2323 4.0378 46.3666 3.38251C46.6112 2.1898 47.3761 1.46335 48.5614 1.21983C49.1592 1.09706 49.7746 0.999113 50.3825 0.996731C55.0059 0.978542 59.6294 0.97515 64.2527 0.999618C64.9298 1.00323 65.617 1.13163 66.28 1.28572C67.2849 1.51929 67.9317 2.17703 68.2357 3.1654C68.5007 4.02675 68.5537 4.91206 68.5267 5.80474C68.5244 5.88067 68.4576 6.00928 68.4016 6.02083C67.3461 6.23945 66.288 6.444 65.1774 6.66183Z" fill="#898989"/>
<path d="M114.294 0.986803C116.738 0.986803 119.182 0.976843 121.626 0.994526C122.164 0.998424 122.71 1.05717 123.237 1.16529C124.785 1.48287 125.49 2.24353 125.756 3.87125C125.845 4.41437 125.894 4.97005 125.896 5.52018C125.908 9.22411 125.911 12.9281 125.894 16.632C125.891 17.2285 125.819 17.8336 125.701 18.4189C125.393 19.9378 124.663 20.6358 123.132 20.8973C122.589 20.99 122.033 21.044 121.483 21.0453C116.643 21.0565 111.803 21.0588 106.964 21.0429C106.367 21.0409 105.766 20.9477 105.176 20.8424C103.838 20.6031 103.058 19.7702 102.812 18.4533C102.704 17.8772 102.623 17.2865 102.621 16.7021C102.604 12.9262 102.6 9.1502 102.623 5.37446C102.627 4.70834 102.736 4.03451 102.871 3.37944C103.117 2.18579 103.887 1.46331 105.07 1.21935C105.679 1.0937 106.306 1.00348 106.927 0.997197C109.382 0.972152 111.838 0.986803 114.294 0.986803ZM105.985 3.76118C105.985 8.59401 105.985 13.4072 105.985 18.2245C111.528 18.2245 117.046 18.2245 122.56 18.2245C122.56 13.387 122.56 8.57395 122.56 3.76118C117.021 3.76118 111.512 3.76118 105.985 3.76118Z" fill="#898989"/>
<path d="M13.7212 21.0225C13.7212 14.3394 13.7212 7.68061 13.7212 0.987223C14.3973 0.987223 15.0564 0.978418 15.7149 0.99574C15.827 0.998699 15.9516 1.09635 16.0446 1.17914C20.0142 4.71562 23.9814 8.2547 27.9474 11.7952C29.0241 12.7564 30.116 13.7021 31.1622 14.6956C31.7531 15.2566 32.2657 15.9 32.8129 16.5068C32.883 16.5846 32.9493 16.6657 33.0371 16.7684C32.6271 11.5053 32.9561 6.27073 32.8125 1.01386C33.8578 1.01386 34.8599 1.01386 35.8799 1.01386C35.8799 7.68379 35.8799 14.3426 35.8799 21.0499C35.2801 21.0499 34.6826 21.0585 34.0858 21.0415C33.9851 21.0386 33.8759 20.9381 33.7903 20.8609C28.9436 16.4835 24.0979 12.105 19.2548 7.72363C18.3318 6.8887 17.3483 6.11244 16.6305 5.00028C16.9265 10.3802 16.6904 15.6879 16.7932 21.0225C15.7489 21.0225 14.7476 21.0225 13.7212 21.0225Z" fill="#898989"/>
<path d="M143.828 21.0402C142.683 21.0402 141.601 21.0402 140.478 21.0402C140.478 15.2843 140.478 9.53977 140.478 3.75573C137.41 3.75573 134.382 3.75573 131.325 3.75573C131.325 2.82213 131.325 1.92787 131.325 1.01001C138.545 1.01001 145.762 1.01001 153 1.01001C153 1.91207 153 2.80618 153 3.73964C149.946 3.73964 146.906 3.73964 143.828 3.73964C143.828 9.52115 143.828 15.2638 143.828 21.0402Z" fill="#898989"/>
<path d="M96.7123 18.2357C96.7123 19.2047 96.7123 20.1042 96.7123 21.0277C90.5336 21.0277 84.3661 21.0277 78.1763 21.0277C78.1763 14.3597 78.1763 7.69378 78.1763 1.00732C79.2737 1.00732 80.3641 1.00732 81.4959 1.00732C81.4959 6.73363 81.4959 12.4618 81.4959 18.2357C86.5841 18.2357 91.6312 18.2357 96.7123 18.2357Z" fill="#898989"/>
<path d="M0 1.00122C1.1125 1.00122 2.20339 1.00122 3.31481 1.00122C3.31481 7.68313 3.31481 14.3499 3.31481 21.0338C2.20621 21.0338 1.11561 21.0338 0 21.0338C0 14.3656 0 7.70053 0 1.00122Z" fill="#898989"/>
</svg>

<svg width="153" height="22" fill="none" xmlns="http://www.w3.org/2000/svg"><path d="M65.177 6.662v-2.9H49.483v14.457h15.672v-5.812h-8.07V9.825h11.428c.007.131.019.247.019.364 0 2.177.02 4.354-.011 6.53-.01.655-.126 1.315-.26 1.958-.248 1.199-1.031 1.904-2.21 2.146-.598.123-1.214.217-1.822.219-4.611.018-9.222.017-13.834 0-.572-.001-1.15-.096-1.715-.198-1.356-.244-2.137-1.087-2.376-2.42a10.448 10.448 0 01-.187-1.789c-.016-3.752-.02-7.505.003-11.257.004-.666.112-1.34.247-1.995.244-1.193 1.01-1.92 2.194-2.163.598-.123 1.214-.22 1.822-.223C55.005.979 59.629.975 64.252 1c.677.003 1.364.132 2.027.286 1.005.233 1.652.891 1.956 1.88.265.86.318 1.746.29 2.639-.002.076-.068.204-.124.216-1.056.218-2.114.423-3.225.64zM114.294.987c2.444 0 4.888-.01 7.332.008a8.367 8.367 0 011.611.17c1.548.318 2.253 1.079 2.519 2.706.089.543.138 1.099.14 1.65.012 3.703.015 7.407-.002 11.111a9.341 9.341 0 01-.193 1.787c-.308 1.519-1.038 2.217-2.569 2.478a9.986 9.986 0 01-1.649.148c-4.84.011-9.68.014-14.519-.002-.597-.002-1.198-.095-1.788-.2-1.338-.24-2.118-1.073-2.364-2.39a9.753 9.753 0 01-.191-1.75c-.017-3.777-.021-7.553.002-11.329.004-.666.113-1.34.248-1.995.246-1.193 1.016-1.916 2.199-2.16a9.743 9.743 0 011.857-.222c2.455-.025 4.911-.01 7.367-.01zm-8.309 2.774v14.463h16.575V3.761h-16.575zM13.721 21.023V.986c.676 0 1.335-.009 1.994.009.112.003.237.1.33.183 3.97 3.537 7.936 7.076 11.902 10.616 1.077.961 2.169 1.907 3.215 2.9.591.562 1.104 1.205 1.65 1.812.071.078.137.159.225.261-.41-5.263-.08-10.497-.224-15.754h3.067V21.05c-.6 0-1.197.008-1.794-.009-.1-.002-.21-.103-.296-.18-4.846-4.378-9.692-8.756-14.535-13.137-.923-.835-1.907-1.612-2.624-2.724.296 5.38.06 10.688.162 16.023h-3.072zm130.107.017h-3.35V3.756h-9.153V1.01H153v2.73h-9.172v17.3zm-47.116-2.804v2.792H78.176V1.008h3.32v17.228h15.216zM0 1.001h3.315v20.033H0V1z" fill="#898989"/></svg>
